X:1
T: Becky's Jellyfish
C:Gordy Euler
R:Reel
Q: 232
K:G
M:4/4
L:1/8
|:G,B, DG BA GA|BG cG BA GA|BG cG BA GB|AB cA FD CA,|
G,B, DG BA GA|BG cG BA G=F|EG cG BG cB|Ac BA G4:|
|:BG Bd gd Bc|BG cG BA GB|AD BD AD cD|^cD d2 ed cd|
BG Bd gd Bc|BG cG BA G=F|EG cG BG cB|Ac BA G4:|
